X:10
T: Old Dangerfield
C: Bill Monroe - Arr. Mike Compton
S: MandoZine TablEdit Archives
Z: TablEdited by John Bird for MandoZine
L: 1/8
Q: 478
M: 4/4
K: A
 z6 AA |: "A"A2 =GE D=C A,=G, | A,2 AA =cA =c2 | A2 =GE D=C A,=C | "E"DE D=C "A"A,2 AA |
 A2 =GE D=C A,=G, | A,2 AA =cA =c2 | A2 =GE D=C A,=C |1 D"E"E D=C "A"A,2 AA :|2 D"E"E D=C "A"A,2 A,A, |
 |: "A"A,C EF A2 AA | "D"DE FA d2 dd | "A"A,C EF A2 AA | "E"EG Bc e2 ee |
 "A"A,C EF A2 AA | "D"DE FA d2 AB | "A"=cB A=G ED =CD |1 ^D"E"E A2 "A"A2 A,A, :|2 ^D"E"E A2 "A"A2 e2 |
 e2 e2 |: "A"=ga aa aa aa | a2 aa ac' ae | "E"[ed][ee] [ee][ee] [ee][ee] [ee][ee] | [e2e2] ef =gf e2 |
 [=fc][^fd] [fd][fd] [fd][fd] [fd][fd] | [f2d2] AB =cB A=G | "A"[A=G][AA] [AA][AA] [AA][AA] [AA][AA] | [A2A2] AB =cB A2
|"G"[^AF][B=G] [B=G][B=G] [B=G][B=G] [B=G][B=G] | [B2=G2] =cB A=G ED |
 "A"[AD][AE] [AE][AE] [AE][AE] [AE][AE] | [A2E2] [A2E2] [AE][AE] [A2E2] |
 "D"[AD][AD] [AD][AD] [AD][AD] [AD][AD] | "E"[A2D2] A=G ED =C=G, |
 "A"[E2A,2] [EA,][EA,] [EA,][EA,] [EA,][EA,] |1 [E2A,2] e2 e2 e2 :|2 [E8A,8] |
